view/frontend/web/svg/flags/na.svg

<svg width="24" height="24" viewbox="0 0 20 15" viewBox="0 0 20 15" fill="none" xmlns="http://www.w3.org/2000/svg">
<g clip-path="url(#clip0_270_60919)">
<rect width="20" height="15" fill="white"/>
<path fill-rule="evenodd" clip-rule="evenodd" d="M0 0V15H20V0H0Z" fill="#009933"/>
<mask id="mask0_270_60919" style="mask-type:luminance" maskUnits="userSpaceOnUse" x="0" y="0" width="20" height="15">
<path fill-rule="evenodd" clip-rule="evenodd" d="M0 0V15H20V0H0Z" fill="white"/>
</mask>
<g mask="url(#mask0_270_60919)">
<path fill-rule="evenodd" clip-rule="evenodd" d="M0 0V15L20 0H0Z" fill="#3195F9"/>
<path d="M-0.632795 16.9335L-0.301197 17.5343L0.266074 17.1481L22.036 2.32979L22.4748 2.0311L22.2511 1.54972L20.7874 -1.59977L20.4804 -2.26045L19.8741 -1.85649L-2.22322 12.8663L-2.70169 13.1851L-2.42386 13.6885L-0.632795 16.9335Z" fill="#E31D1C" stroke="#F7FCFF" stroke-width="1.25"/>
<path fill-rule="evenodd" clip-rule="evenodd" d="M3.89352 5.77797L3.08471 6.78704L2.88879 5.50875L1.68381 5.97823L2.15328 4.77324L0.875 4.57733L1.88407 3.76852L0.875 2.95971L2.15328 2.76379L1.68381 1.55881L2.88879 2.02828L3.08471 0.75L3.89352 1.75907L4.70233 0.75L4.89824 2.02828L6.10323 1.55881L5.63375 2.76379L6.91204 2.95971L5.90297 3.76852L6.91204 4.57733L5.63375 4.77324L6.10323 5.97823L4.89824 5.50875L4.70233 6.78704L3.89352 5.77797ZM3.89352 5.33102C4.75646 5.33102 5.45602 4.63146 5.45602 3.76852C5.45602 2.90557 4.75646 2.20602 3.89352 2.20602C3.03057 2.20602 2.33102 2.90557 2.33102 3.76852C2.33102 4.63146 3.03057 5.33102 3.89352 5.33102ZM5.14352 3.76852C5.14352 4.45887 4.58387 5.01852 3.89352 5.01852C3.20316 5.01852 2.64352 4.45887 2.64352 3.76852C2.64352 3.07816 3.20316 2.51852 3.89352 2.51852C4.58387 2.51852 5.14352 3.07816 5.14352 3.76852Z" fill="#FECA00"/>
</g>
</g>
<defs>
<clipPath id="clip0_270_60919">
<rect width="20" height="15" fill="white"/>
</clipPath>
</defs>
</svg>

<svg width="24" height="24" viewbox="0 0 20 15" fill="none" xmlns="http://www.w3.org/2000/svg">
  <mask id="a" maskUnits="userSpaceOnUse" x="0" y="0" width="20" height="15">
    <path fill="#fff" d="M0 0h20v15H0z"/>
  </mask>
  <g mask="url(#a)">
    <path fill-rule="evenodd" clip-rule="evenodd" d="M0 0v15h20V0H0z" fill="#093"/>
    <mask id="b" maskUnits="userSpaceOnUse" x="0" y="0" width="20" height="15">
      <path fill-rule="evenodd" clip-rule="evenodd" d="M0 0v15h20V0H0z" fill="#fff"/>
    </mask>
    <g mask="url(#b)">
      <path fill-rule="evenodd" clip-rule="evenodd" d="M0 0v15L20 0H0z" fill="#3195F9"/>
      <path d="M-.633 16.933l.332.601.567-.386L22.036 2.33l.439-.299-.224-.481-1.464-3.15-.307-.66-.606.404-22.097 14.722-.479.32.278.502 1.791 3.245z" fill="#E31D1C" stroke="#F7FCFF" stroke-width="1.25"/>
      <path fill-rule="evenodd" clip-rule="evenodd" d="M3.894 5.778l-.81 1.009-.195-1.278-1.205.47.47-1.206-1.279-.196 1.01-.808-1.01-.81 1.278-.195-.47-1.205 1.206.47L3.085.75l.809 1.01.808-1.01.196 1.278 1.205-.47-.47 1.206 1.279.196-1.009.809 1.009.808-1.278.196.47 1.205-1.206-.47-.196 1.279-.808-1.009zm0-.447a1.563 1.563 0 100-3.125 1.563 1.563 0 000 3.125zm1.25-1.562a1.25 1.25 0 11-2.5 0 1.25 1.25 0 012.5 0z" fill="#FECA00"/>
    </g>
  </g>
</svg>
